X:246
T:Francis John McGovern
M:4/4
L:1/8
R:reel
Z:Tim Shirley
K:G
"G"|BcBA GEDE|~G2 BG "C"cGBG|"G"~B3 G AGDG|"Ami"EAAG "D"(3ABA GA:|
"G"(3Bcd ed gd"C"ed|"G"gded "C"B ~G3|"G"(3Bcd ed ~g2 ed|"Ami"eaag "C"~a2
ge|
"G"(3Bcd ed gd"C"ed|"G/B"gded "Emi"BG ~G2|"G"BcBA "Emi"GEDG|"Ami"EAAG "D
"~A2 GA|
